(Made in : Autodesk CAM Post Processor)
(G-Code optimized for Grbl 1.1 / BlackBox controller)
(OpenBuilds CNC : GRBL/BlackBox)
(Post-Processor : OpenbuildsFusion360PostGrbl2.cps V1.0.30)
(Units = mm)
(Laser UseZ = true)

(Drawing name : Untitled)
(Program Name : gh5)

(1 Operation :)
(1 : 2D Profile2)
(  Work Coordinate System : G54)
(  Tool 1: Plasma Cutter Diam = 1.2mm)
(  Machining time : 20 sec)

G90 G94 G17
G21

(Plasma pierce height 8)
(Plasma topHeight 7.8)

(Operation 1 of 1 : 2D Profile2)
G54
(Plasma cutting with GRBL.)
(This relies on homing, see https://openbuilds.com/search/127200199/?q=G53+fusion )
G53 G0 Z10
G0 X-13.37 Y36.668 F2000
G0 X-13.37 Y36.668 Z14.5
Z8
M3 S1000
G4 P1.8
G1 Z7.8 F2000
G3 X-12.993 Y51.565 I-19.812 J7.956
X-17.292 Y55.514 I-5.771 J-1.968
X-23.039 Y53.573 I-0.819 J-7.052
X-28.577 Y40.258 I11.39 J-12.547
X-25.906 Y32.354 I10.154 J-0.971
X-15.51 Y33.346 I4.778 J4.895
G1 X-14.671 Y34.363
X-13.971 Y35.496
X-13.37 Y36.668
M5
G0 Z9.5
X0.316 Y26.753
Z8
M3
G4 P1.8
G1 Z7.8
G1 X0.379 Y26.645
X0.417 Y26.526
G2 X-8.76 Y19.024 I-6.417 J-1.515
X-11.878 Y23.24 I3.489 J5.84
X-12.491 Y26.39 I5.447 J2.695
G1 X-12.429 Y26.542
X-12.333 Y26.669
X-12.019 Y27.08
G2 X-11.809 Y27.253 I0.477 J-0.364
X-10.597 Y27.497 I0.96 J-1.639
G1 X-10.477 Y27.478
X-10.362 Y27.435
X-10.163 Y27.337
G2 X-9.883 Y27.048 I-0.266 J-0.538
X-9.58 Y25.624 I-2.186 J-1.21
G3 X-7.559 Y21.655 I7.486 J1.312
X-2.542 Y23.707 I1.831 J2.682
G1 X-2.369 Y24.306
X-2.094 Y26.431
G2 X-2.007 Y26.672 I0.595 J-0.077
X-1.281 Y27.6 I2.755 J-1.407
X-0.424 Y27.612 I0.435 J-0.414
X0.316 Y26.753 I-2.358 J-2.781
M5
G0 Z9.5
X15.545 Y41.897
Z8
M3
G4 P1.8
G1 Z7.8
G3 X7.742 Y55.569 I-19.767 J-2.218
X2.723 Y56.56 I-3.842 J-6.259
X-1.782 Y50.857 I1.806 J-6.058
X0.754 Y36.452 I20.821 J-3.761
X6.899 Y32.025 I8.14 J4.82
X15.063 Y38.372 I1.174 J6.915
G1 X15.29 Y39.545
X15.545 Y41.897
M5
G0 Z9.5
X43.328 Y-4.034
Z8
M3
G4 P1.8
G1 Z7.8
G1 X45.662 Y-11.878
X48.31 Y-19.602
G3 X55.735 Y-36.68 I162.865 J60.657
G2 X58.044 Y-43.176 I-196.338 J-73.432
G3 X62.531 Y-48.289 I8.296 J2.755
G2 X69.491 Y-52.576 I-8.614 J-21.779
G1 X69.47 Y-52.676
X69.497 Y-52.72
X69.913 Y-53.491
X69.979 Y-53.688
X70.093 Y-54.457
X70.099 Y-54.574
X70.082 Y-54.689
G2 X67.186 Y-57.956 I-4.396 J0.98
X57.196 Y-59.816 I-8.832 J19.673
G1 X52.185 Y-59.952
X47.219 Y-60.231
G3 X41.634 Y-65.684 I-0.153 J-5.43
G2 X38.184 Y-68.059 I-3.2 J0.956
G1 X30.957 Y-68.019
X27.969 Y-68.251
X24.998 Y-68.574
G3 X23.933 Y-69.52 I0.057 J-1.136
G2 X22.544 Y-73.648 I-18.383 J3.889
X16.83 Y-76.859 I-5.975 J3.943
G1 X11.472 Y-77.261
X11.448 Y-77.262
X6.075 Y-77.454
X-3.522 Y-77.654
X-13.12 Y-77.743
G2 X-21.737 Y-76.671 I-0.982 J27.261
X-22.97 Y-73.975 I2.575 J2.808
G3 X-26.382 Y-70.443 I-3.705 J-0.165
X-38.668 Y-70.394 I-7.978 J-460.101
G2 X-43.835 Y-69.983 I-1.31 J16.218
X-47.155 Y-67.915 I1.105 J5.471
X-47.52 Y-64.555 I3.766 J2.108
G3 X-46.805 Y-59.72 I-13.146 J4.414
X-48.2 Y-58.765 I-1.174 J-0.218
G1 X-56.507 Y-57.601
G2 X-66.412 Y-55.867 I9.891 J85.677
X-69.984 Y-52.646 I1.713 J5.491
G1 X-70.09 Y-52.044
G2 X-70.066 Y-51.743 I0.591 J0.104
G1 X-69.87 Y-51.178
G2 X-69.725 Y-50.948 I0.567 J-0.196
X-67.235 Y-48.985 I8.135 J-7.759
G3 X-62.236 Y-43.612 I-7.074 J11.592
G1 X-60.854 Y-41.039
X-59.569 Y-38.418
X-57.235 Y-33.06
X-55.159 Y-27.591
X-53.265 Y-22.039
G3 X-48.36 Y-3.442 I-170.159 J54.823
G1 X-46.512 Y6.009
X-44.868 Y15.515
X-41.905 Y32.678
X-41.902 Y32.694
X-40.186 Y41.229
X-40.182 Y41.25
X-38.161 Y49.723
G2 X-36.512 Y55.053 I66.657 J-17.706
G1 X-34.573 Y60.218
G2 X-18.301 Y74.995 I22.918 J-8.889
X14.863 Y74.724 I16.209 J-45.797
X26.71 Y61.848 I-11.111 J-22.113
X32.041 Y44.286 I-81.725 J-34.395
G1 X34.581 Y32.126
X37.267 Y20.015
X40.161 Y7.956
X43.328 Y-4.034
M5
G0 Z14.5

M5
G0 X0 Y0
M30
